mobile/24/svg/eye-24.svg

<svg width="24" height="24" viewBox="0 0 24 24" fill="none" xmlns="http://www.w3.org/2000/svg">
<path fill-rule="evenodd" clip-rule="evenodd" d="M12 9C10.136 9 8.625 10.511 8.625 12.375C8.625 14.239 10.136 15.75 12 15.75C13.864 15.75 15.375 14.239 15.375 12.375C15.375 10.511 13.864 9 12 9ZM10.375 12.375C10.375 11.4775 11.1025 10.75 12 10.75C12.8975 10.75 13.625 11.4775 13.625 12.375C13.625 13.2725 12.8975 14 12 14C11.1025 14 10.375 13.2725 10.375 12.375Z" fill="black"/>
<path fill-rule="evenodd" clip-rule="evenodd" d="M11.9999 5.26904C7.50291 5.26904 3.69962 8.10555 2.19969 12.0651C2.12403 12.2648 2.12403 12.4853 2.19969 12.685C3.69962 16.6445 7.50291 19.481 11.9999 19.481C16.497 19.481 20.3003 16.6445 21.8002 12.685C21.8759 12.4853 21.8759 12.2648 21.8002 12.0651C20.3003 8.10555 16.497 5.26904 11.9999 5.26904ZM11.9999 17.731C8.3807 17.731 5.29072 15.5216 3.96039 12.375C5.29072 9.22847 8.3807 7.01904 11.9999 7.01904C15.6192 7.01904 18.7092 9.22847 20.0395 12.375C18.7092 15.5216 15.6192 17.731 11.9999 17.731Z" fill="black"/>
</svg>

<svg width="24" height="24" fill="none" xmlns="http://www.w3.org/2000/svg"><path fill-rule="evenodd" clip-rule="evenodd" d="M12 9a3.375 3.375 0 1 0 0 6.75A3.375 3.375 0 0 0 12 9zm-1.625 3.375a1.625 1.625 0 1 1 3.25 0 1.625 1.625 0 0 1-3.25 0z" fill="#000"/><path fill-rule="evenodd" clip-rule="evenodd" d="M12 5.269c-4.497 0-8.3 2.837-9.8 6.796a.875.875 0 0 0 0 .62c1.5 3.96 5.303 6.796 9.8 6.796 4.497 0 8.3-2.837 9.8-6.796a.874.874 0 0 0 0-.62C20.3 8.105 16.497 5.27 12 5.27zm0 12.462c-3.62 0-6.71-2.21-8.04-5.356C5.29 9.228 8.38 7.019 12 7.019c3.62 0 6.71 2.21 8.04 5.356-1.33 3.147-4.42 5.356-8.04 5.356z" fill="#000"/></svg>
